RestoDelMundo/Paises Bajos/Otras Categorias/Vv Nsvv.svg

<svg xmlns="http://www.w3.org/2000/svg" viewBox="0 0 612 792"><path d="m387.352 113.39-6.614 14.514c-14.05 30.832-40.745 48.514-73.238 48.514s-59.187-17.682-73.238-48.514l-6.614-14.514-14.827 5.882c-45.626 18.098-81.373 39.533-109.285 65.529-24.418 22.742-40.258 46.361-55.651 70.576L37.883 271.11l16.703 8.284c21.122 10.474 35.642 36.724 36.132 65.316.521 30.424-15.189 56.506-43.101 71.56l-10.154 5.477 1.485 11.442c9.685 74.563 42.677 137.703 95.416 182.595C182.55 656.802 244.037 679.39 307.5 679.39s124.95-22.588 173.136-63.605c52.738-44.892 85.732-108.032 95.416-182.595l1.485-11.442-10.154-5.477c-27.912-15.054-43.621-41.136-43.101-71.56.489-28.592 15.009-54.842 36.132-65.316l16.702-8.284-10.002-15.734c-15.394-24.214-31.233-47.832-55.65-70.576-27.911-25.996-63.658-47.431-109.284-65.529z"/><path fill="#fff" d="M395.996 134.857c96.893 38.434 128.223 84.298 156.968 129.515-52.969 26.269-70.193 125.316 6.46 166.657-19.46 149.841-135.65 231.593-251.924 231.593-116.275 0-232.464-81.752-251.923-231.593 76.653-41.341 59.428-140.389 6.459-166.657 28.745-45.217 60.074-91.08 156.968-129.515 18.53 40.66 53.773 58.328 88.496 58.328 34.724.001 69.967-17.667 88.496-58.328"/><path d="M219.59 271.397h21.191v20.92H219.59ZM312.409 270.971h22.005v22.307h-22.005ZM387.332 270.945h20.118v21.389h-20.118ZM190.091 258.789l-22.523-32.618h-17.87v65.39h18.411v-31.947l22.535 31.947h18.804v-65.39h-19.357ZM302.165 261.25l-.166-.225c-2.035-2.767-5.055-5.516-8.079-7.354l-.275-.168-.315-.07c-1.823-.412-3.932-1.051-6.375-1.791-2.479-.751-5.289-1.6-8.584-2.458a322 322 0 0 0-3.8-.959c-3.973-.983-7.403-1.833-8.538-2.864-.927-.835-1.227-1.17-1.227-1.95 0-.698.242-1.04 1.936-2.589 2.209-.94 4.932-1.398 8.311-1.398 3.309 0 5.778.728 7.341 1.39 1.385 1.399 2.175 3.562 3.012 5.847l.475 1.295h16.502v-1.976c0-6.801-2.253-11.496-7.301-15.205-4.062-3.635-10.983-5.554-20.028-5.554-6.023 0-10.933.931-14.538 1.744l-.314.07-.277.166c-2.904 1.767-5.91 3.592-9.011 7.352-2.211 2.999-3.198 5.992-3.198 9.704 0 6.037 3.467 10.013 7.208 13.406 3.083 2.825 8.872 5.487 15.881 7.304l.195.042c5.447.833 9.066 1.642 10.755 2.405l.244.091c2.379.717 3.062 1.342 3.94 2.146.612.553 1.181 1.659 1.227 1.936 0 1.715-.435 2.848-2.81 4.285l-.307.232c-1.36 1.239-4.522 2.04-8.058 2.04-4.631 0-7.074-.907-9.318-2.271-2.089-1.267-2.517-2.376-3.44-6.564l-.344-1.568-17.343.188.307 2.221c.942 6.847 3.759 12.575 8.143 16.558l.166.135c5.018 3.652 12.046 5.505 20.893 5.505 6.79 0 11.695 0 15.832-1.883 4.4-1.985 8.206-4.777 10.176-7.47l.134-.211c2.031-3.675 3.06-7.441 3.06-11.196 0-3.857-1.085-7.607-1.995-10.074zM360.063 264.27l-14.778-38.099h-21.798l26.993 65.39h19.201l25.953-65.39h-20.795ZM454.362 226.172l-14.794 38.103-14.779-38.103h-21.793l26.981 65.387h19.181l26.98-65.387ZM464.754 270.347h21.067v22.336h-21.067ZM307.5 326.366c42.578 0 83.553 18.746 115.383 52.787 30.551 32.673 48.072 75.284 48.072 116.905 0 42.016-17.188 81.628-48.397 111.544-31.01 29.723-71.872 46.093-115.058 46.093s-84.048-16.37-115.057-46.093c-31.21-29.916-48.398-69.528-48.398-111.544 0-41.621 17.523-84.232 48.072-116.905 31.831-34.04 72.807-52.787 115.383-52.787"/><path fill="#fff" d="M307.5 343.281c-37.841 0-74.432 16.841-103.029 47.423-27.653 29.574-43.511 67.974-43.511 105.354 0 36.126 14.341 70.301 40.467 96.656l204.738-206.493c-27.909-27.733-62.719-42.94-98.665-42.94"/></svg>

<svg enable-background="new 0 0 612 792" viewBox="0 0 612 792" xmlns="http://www.w3.org/2000/svg"><path d="M 387.352 113.39 l -6.614 14.514 c -14.05 30.832 -40.745 48.514 -73.238 48.514 s -59.187 -17.682 -73.238 -48.514 l -6.614 -14.514 l -14.827 5.882 c -45.626 18.098 -81.373 39.533 -109.285 65.529 c -24.418 22.742 -40.258 46.361 -55.651 70.576 L 37.883 271.11 l 16.703 8.284 c 21.122 10.474 35.642 36.724 36.132 65.316 c .521 30.424 -15.189 56.506 -43.101 71.56 l -10.154 5.477 l 1.485 11.442 c 9.685 74.563 42.677 137.703 95.416 182.595 C 182.55 656.802 244.037 679.39 307.5 679.39 s 124.95 -22.588 173.136 -63.605 c 52.738 -44.892 85.732 -108.032 95.416 -182.595 l 1.485 -11.442 l -10.154 -5.477 c -27.912 -15.054 -43.621 -41.136 -43.101 -71.56 c .489 -28.592 15.009 -54.842 36.132 -65.316 l 16.702 -8.284 l -10.002 -15.734 c -15.394 -24.214 -31.233 -47.832 -55.65 -70.576 c -27.911 -25.996 -63.658 -47.431 -109.284 -65.529 L 387.352 113.39 L 387.352 113.39 z"/><path d="M 395.996 134.857 c 96.893 38.434 128.223 84.298 156.968 129.515 c -52.969 26.269 -70.193 125.316 6.46 166.657 C 539.964 580.87 423.774 662.622 307.5 662.622 c -116.275 0 -232.464 -81.752 -251.923 -231.593 c 76.653 -41.341 59.428 -140.389 6.459 -166.657 c 28.745 -45.217 60.074 -91.08 156.968 -129.515 c 18.53 40.66 53.773 58.328 88.496 58.328 C 342.224 193.186 377.467 175.518 395.996 134.857" fill="#fff"/><path d="M 219.59 271.397 H 240.781 V 292.317 H 219.59 Z"/><path d="M 312.409 270.971 H 334.414 V 293.278 H 312.409 Z"/><path d="M 387.332 270.945 H 407.45 V 292.334 H 387.332 Z"/><path d="M 190.091 258.789 L 167.568 226.171 L 149.698 226.171 L 149.698 291.561 L 168.109 291.561 L 168.109 259.614 L 190.644 291.561 L 209.448 291.561 L 209.448 226.171 L 190.091 226.171 Z"/><path d="M 302.165 261.25 l -.166 -.225 c -2.035 -2.767 -5.055 -5.516 -8.079 -7.354 l -.275 -.168 l -.315 -.07 c -1.823 -.412 -3.932 -1.051 -6.375 -1.791 c -2.479 -.751 -5.289 -1.6 -8.584 -2.458 c -1.348 -.351 -2.617 -.666 -3.8 -.959 c -3.973 -.983 -7.403 -1.833 -8.538 -2.864 c -.927 -.835 -1.227 -1.17 -1.227 -1.95 c 0 -.698 .242 -1.04 1.936 -2.589 c 2.209 -.94 4.932 -1.398 8.311 -1.398 c 3.309 0 5.778 .728 7.341 1.39 c 1.385 1.399 2.175 3.562 3.012 5.847 l .475 1.295 h 16.502 v -1.976 c 0 -6.801 -2.253 -11.496 -7.301 -15.205 c -4.062 -3.635 -10.983 -5.554 -20.028 -5.554 c -6.023 0 -10.933 .931 -14.538 1.744 l -.314 .07 l -.277 .166 c -2.904 1.767 -5.91 3.592 -9.011 7.352 c -2.211 2.999 -3.198 5.992 -3.198 9.704 c 0 6.037 3.467 10.013 7.208 13.406 c 3.083 2.825 8.872 5.487 15.881 7.304 l .195 .042 c 5.447 .833 9.066 1.642 10.755 2.405 l .244 .091 c 2.379 .717 3.062 1.342 3.94 2.146 c .612 .553 1.181 1.659 1.227 1.936 c 0 1.715 -.435 2.848 -2.81 4.285 l -.307 .232 c -1.36 1.239 -4.522 2.04 -8.058 2.04 c -4.631 0 -7.074 -.907 -9.318 -2.271 c -2.089 -1.267 -2.517 -2.376 -3.44 -6.564 l -.344 -1.568 l -17.343 .188 l .307 2.221 c .942 6.847 3.759 12.575 8.143 16.558 l .166 .135 c 5.018 3.652 12.046 5.505 20.893 5.505 c 6.79 0 11.695 0 15.832 -1.883 c 4.4 -1.985 8.206 -4.777 10.176 -7.47 l .134 -.211 c 2.031 -3.675 3.06 -7.441 3.06 -11.196 c 0 -3.857 -1.085 -7.607 -1.995 -10.074 L 302.165 261.25 z"/><path d="M 360.063 264.27 L 345.285 226.171 L 323.487 226.171 L 350.48 291.561 L 369.681 291.561 L 395.634 226.171 L 374.839 226.171 Z"/><path d="M 454.362 226.172 L 439.568 264.275 L 424.789 226.172 L 402.996 226.172 L 429.977 291.559 L 449.158 291.559 L 476.138 226.172 Z"/><path d="M 464.754 270.347 H 485.821 V 292.683 H 464.754 Z"/><path d="M 307.5 326.366 c 42.578 0 83.553 18.746 115.383 52.787 c 30.551 32.673 48.072 75.284 48.072 116.905 c 0 42.016 -17.188 81.628 -48.397 111.544 c -31.01 29.723 -71.872 46.093 -115.058 46.093 s -84.048 -16.37 -115.057 -46.093 c -31.21 -29.916 -48.398 -69.528 -48.398 -111.544 c 0 -41.621 17.523 -84.232 48.072 -116.905 C 223.948 345.113 264.924 326.366 307.5 326.366"/><path d="M 307.5 343.281 c -37.841 0 -74.432 16.841 -103.029 47.423 c -27.653 29.574 -43.511 67.974 -43.511 105.354 c 0 36.126 14.341 70.301 40.467 96.656 l 204.738 -206.493 C 378.256 358.488 343.446 343.281 307.5 343.281 z" fill="#fff"/></svg>
